X: 4179
T: MISS TRAVERS
%R: reel, hornpipe
B: James Kerr "Merry Melodies" v.4 p.21 #179
Z: 2016 John Chambers <jc:trillian.mit.edu>
M: C|
L: 1/8
K: G
(3(def) |\
g2(DG) EGDG | EGDG G,A,B,D |\
EGcA Bcdc | (3(Bdg) (ba) gfed |\
(3ccc (ac) (3BBB (gB) | dgba gfed |\
edcB cBAB |
cdef gbag |:\
g2(DG) (3EGE (DG) | (3EGE (DB,) G,B,DG |\
[1 cBcA (Bc)d2 | dgba gfed :|\
[2 edcB cBAG |
FAdc (BG)G2 |:\
(3(gfg) (dg) bgag | bgag (fg)a2 |\
[1 bagf gfed | cdef gbaf :|\
[2 (3(bag) (3(agf) (3(gfe) (3(fed) | cdef g2 |]

%%sep 1 1 500
%%sep 1 1 500

